Numix/16/status/indicator-keyboard-Ps.svg

<?xml version="1.0" encoding="UTF-8" standalone="no"?>
<svg
   xmlns:dc="http://purl.org/dc/elements/1.1/"
   xmlns:cc="http://creativecommons.org/ns#"
   xmlns:rdf="http://www.w3.org/1999/02/22-rdf-syntax-ns#"
   xmlns:svg="http://www.w3.org/2000/svg"
   xmlns="http://www.w3.org/2000/svg"
   xmlns:sodipodi="http://sodipodi.sourceforge.net/DTD/sodipodi-0.dtd"
   xmlns:inkscape="http://www.inkscape.org/namespaces/inkscape"
   viewBox="0 0 16 16"
   id="svg2"
   version="1.1"
   inkscape:version="0.91 r13725"
   sodipodi:docname="indicator-keyboard-Ps.svg">
  <metadata
     id="metadata13">
    <rdf:RDF>
      <cc:Work
         rdf:about="">
        <dc:format>image/svg+xml</dc:format>
        <dc:type
           rdf:resource="http://purl.org/dc/dcmitype/StillImage" />
      </cc:Work>
    </rdf:RDF>
  </metadata>
  <defs
     id="defs11" />
  <sodipodi:namedview
     pagecolor="#ffffff"
     bordercolor="#666666"
     borderopacity="1"
     objecttolerance="10"
     gridtolerance="10"
     guidetolerance="10"
     inkscape:pageopacity="0"
     inkscape:pageshadow="2"
     inkscape:window-width="640"
     inkscape:window-height="480"
     id="namedview9"
     showgrid="false"
     inkscape:zoom="14.75"
     inkscape:cx="8"
     inkscape:cy="8"
     inkscape:window-x="65"
     inkscape:window-y="24"
     inkscape:window-maximized="0"
     inkscape:current-layer="svg2" />
  <path
     style="fill:#ececec;fill-opacity:1"
     d="M 1.5996094 0 C 0.71320937 2.9605947e-16 0 0.71320937 0 1.5996094 L 0 14.400391 C 2.9605947e-16 15.286791 0.71320937 16 1.5996094 16 L 14.400391 16 C 15.286791 16 16 15.286791 16 14.400391 L 16 1.5996094 C 16 0.71320937 15.286791 0 14.400391 0 L 1.5996094 0 z M 5.5703125 4.8007812 C 6.4523125 4.8007812 7.1090156 4.9686875 7.5410156 5.3046875 C 7.9730156 5.6406875 8.1894531 6.1183281 8.1894531 6.7363281 C 8.1894531 7.0903281 8.126 7.3925313 8 7.6445312 C 7.874 7.8905313 7.6949375 8.0920469 7.4609375 8.2480469 C 7.2269375 8.3980469 6.9396563 8.5080781 6.5976562 8.5800781 C 6.2616563 8.6460781 5.879125 8.6796875 5.453125 8.6796875 L 4.6074219 8.6796875 L 4.6074219 11.091797 L 3.9960938 11.091797 L 3.9960938 4.9707031 C 4.2120938 4.9107031 4.4639531 4.8697031 4.7519531 4.8457031 C 5.0459531 4.8157031 5.3183125 4.8007812 5.5703125 4.8007812 z M 5.5976562 5.3320312 C 5.3696563 5.3320312 5.1756719 5.341375 5.0136719 5.359375 C 4.8576719 5.371375 4.7214219 5.3825313 4.6074219 5.3945312 L 4.6074219 8.1484375 L 5.3828125 8.1484375 C 5.7128125 8.1484375 6.0094375 8.12975 6.2734375 8.09375 C 6.5434375 8.05175 6.7710312 7.9809063 6.9570312 7.8789062 C 7.1490312 7.7709063 7.2964375 7.6235 7.3984375 7.4375 C 7.5004375 7.2515 7.5507812 7.0145625 7.5507812 6.7265625 C 7.5507812 6.4505625 7.4948594 6.2229687 7.3808594 6.0429688 C 7.2728594 5.8629687 7.1254531 5.7211406 6.9394531 5.6191406 C 6.7594531 5.5111406 6.5523594 5.4365313 6.3183594 5.3945312 C 6.0843594 5.3525312 5.8436563 5.3320312 5.5976562 5.3320312 z M 10.546875 6.3300781 C 10.864875 6.3300781 11.124125 6.3581094 11.328125 6.4121094 C 11.538125 6.4661094 11.685531 6.5126875 11.769531 6.5546875 L 11.634766 7.078125 C 11.562766 7.042125 11.439625 6.9935937 11.265625 6.9335938 C 11.097625 6.8735938 10.849531 6.84375 10.519531 6.84375 C 10.387531 6.84375 10.260625 6.8586719 10.140625 6.8886719 C 10.026625 6.9126719 9.9259375 6.9536719 9.8359375 7.0136719 C 9.7459375 7.0676719 9.6731406 7.1404688 9.6191406 7.2304688 C 9.5651406 7.3144687 9.5371094 7.4189219 9.5371094 7.5449219 C 9.5371094 7.6709219 9.561375 7.7791406 9.609375 7.8691406 C 9.657375 7.9591406 9.7264063 8.0412812 9.8164062 8.1132812 C 9.9124062 8.1792812 10.026203 8.2407813 10.158203 8.3007812 C 10.296203 8.3607812 10.452953 8.428 10.626953 8.5 C 10.806953 8.572 10.978625 8.6466094 11.140625 8.7246094 C 11.308625 8.7966094 11.456031 8.8861406 11.582031 8.9941406 C 11.708031 9.0961406 11.808719 9.2230469 11.886719 9.3730469 C 11.964719 9.5170469 12.003906 9.699875 12.003906 9.921875 C 12.003906 10.341875 11.845344 10.659 11.527344 10.875 C 11.215344 11.091 10.786234 11.199219 10.240234 11.199219 C 9.8322343 11.199219 9.5206875 11.163797 9.3046875 11.091797 C 9.0886875 11.025797 8.9450469 10.975453 8.8730469 10.939453 L 9.0253906 10.408203 C 9.0433906 10.420203 9.0825781 10.440703 9.1425781 10.470703 C 9.2025781 10.494703 9.2827656 10.524547 9.3847656 10.560547 C 9.4867656 10.590547 9.6061406 10.616625 9.7441406 10.640625 C 9.8881406 10.664625 10.054234 10.677734 10.240234 10.677734 C 10.576234 10.677734 10.852359 10.623625 11.068359 10.515625 C 11.290359 10.401625 11.400391 10.213219 11.400391 9.9492188 C 11.400391 9.8232188 11.379891 9.715 11.337891 9.625 C 11.301891 9.535 11.238437 9.4528594 11.148438 9.3808594 C 11.058438 9.3088594 10.939062 9.2398281 10.789062 9.1738281 C 10.645062 9.1078281 10.466 9.0314063 10.25 8.9414062 C 10.076 8.8694062 9.9099063 8.7966094 9.7539062 8.7246094 C 9.5979063 8.6466094 9.4598437 8.5588906 9.3398438 8.4628906 C 9.2198438 8.3608906 9.1247344 8.2415156 9.0527344 8.1035156 C 8.9807344 7.9655156 8.9433594 7.7976094 8.9433594 7.5996094 C 8.9433594 7.2216094 9.0851875 6.9156406 9.3671875 6.6816406 C 9.6551875 6.4476406 10.048875 6.3300781 10.546875 6.3300781 z "
     id="path4" />
</svg>

<svg xmlns="http://www.w3.org/2000/svg" viewBox="0 0 16 16">
 <path d="m 1.6 0 c -0.886 0 -1.6 0.713 -1.6 1.6 l 0 12.801 c 0 0.886 0.713 1.6 1.6 1.6 l 12.801 0 c 0.886 0 1.6 -0.713 1.6 -1.6 l 0 -12.801 c 0 -0.886 -0.713 -1.6 -1.6 -1.6 l -12.801 0 z m 3.971 4.801 c 0.882 0 1.539 0.168 1.971 0.504 c 0.432 0.336 0.648 0.814 0.648 1.432 c 0 0.354 -0.063 0.656 -0.189 0.908 c -0.126 0.246 -0.305 0.448 -0.539 0.604 c -0.234 0.15 -0.521 0.26 -0.863 0.332 c -0.336 0.066 -0.719 0.1 -1.145 0.1 l -0.846 0 l 0 2.412 l -0.611 0 l 0 -6.121 c 0.216 -0.06 0.468 -0.101 0.756 -0.125 c 0.294 -0.03 0.566 -0.045 0.818 -0.045 z m 0.027 0.531 c -0.228 0 -0.422 0.009 -0.584 0.027 c -0.156 0.012 -0.292 0.023 -0.406 0.035 l 0 2.754 l 0.775 0 c 0.33 0 0.627 -0.019 0.891 -0.055 c 0.27 -0.042 0.498 -0.113 0.684 -0.215 c 0.192 -0.108 0.339 -0.255 0.441 -0.441 c 0.102 -0.186 0.152 -0.423 0.152 -0.711 c 0 -0.276 -0.056 -0.504 -0.17 -0.684 c -0.108 -0.18 -0.255 -0.322 -0.441 -0.424 c -0.18 -0.108 -0.387 -0.183 -0.621 -0.225 c -0.234 -0.042 -0.475 -0.063 -0.721 -0.063 z m 4.949 0.998 c 0.318 0 0.577 0.028 0.781 0.082 c 0.21 0.054 0.357 0.101 0.441 0.143 l -0.135 0.523 c -0.072 -0.036 -0.195 -0.085 -0.369 -0.145 c -0.168 -0.06 -0.416 -0.09 -0.746 -0.09 c -0.132 0 -0.259 0.015 -0.379 0.045 c -0.114 0.024 -0.215 0.065 -0.305 0.125 c -0.09 0.054 -0.163 0.127 -0.217 0.217 c -0.054 0.084 -0.082 0.188 -0.082 0.314 c 0 0.126 0.024 0.234 0.072 0.324 c 0.048 0.09 0.117 0.172 0.207 0.244 c 0.096 0.066 0.21 0.128 0.342 0.188 c 0.138 0.06 0.295 0.127 0.469 0.199 c 0.18 0.072 0.352 0.147 0.514 0.225 c 0.168 0.072 0.315 0.162 0.441 0.27 c 0.126 0.102 0.227 0.229 0.305 0.379 c 0.078 0.144 0.117 0.327 0.117 0.549 c 0 0.42 -0.159 0.737 -0.477 0.953 c -0.312 0.216 -0.741 0.324 -1.287 0.324 c -0.408 0 -0.72 -0.035 -0.936 -0.107 c -0.216 -0.066 -0.36 -0.116 -0.432 -0.152 l 0.152 -0.531 c 0.018 0.012 0.057 0.032 0.117 0.063 c 0.06 0.024 0.14 0.054 0.242 0.09 c 0.102 0.03 0.221 0.056 0.359 0.08 c 0.144 0.024 0.31 0.037 0.496 0.037 c 0.336 0 0.612 -0.054 0.828 -0.162 c 0.222 -0.114 0.332 -0.302 0.332 -0.566 c 0 -0.126 -0.021 -0.234 -0.063 -0.324 c -0.036 -0.09 -0.099 -0.172 -0.189 -0.244 c -0.09 -0.072 -0.209 -0.141 -0.359 -0.207 c -0.144 -0.066 -0.323 -0.142 -0.539 -0.232 c -0.174 -0.072 -0.34 -0.145 -0.496 -0.217 c -0.156 -0.078 -0.294 -0.166 -0.414 -0.262 c -0.12 -0.102 -0.215 -0.221 -0.287 -0.359 c -0.072 -0.138 -0.109 -0.306 -0.109 -0.504 c 0 -0.378 0.142 -0.684 0.424 -0.918 c 0.288 -0.234 0.682 -0.352 1.18 -0.352 z" style="fill:#ececec;fill-opacity:1"/>
</svg>
